data/icons/scalable/actions/mail-message-new-symbolic.svg

<?xml version="1.0" encoding="UTF-8"?>
<svg height="16px" viewBox="0 0 16 16" width="16px" xmlns="http://www.w3.org/2000/svg">
    <path d="m 3 1 c -1.644531 0 -3 1.355469 -3 3 v 6 c 0 1.644531 1.355469 3 3 3 h 2 c 0.550781 0 1 -0.449219 1 -1 s -0.449219 -1 -1 -1 h -2 c -0.570312 0 -1 -0.429688 -1 -1 v -5.800781 l 4.613281 3.078125 c 0.835938 0.558594 1.9375 0.558594 2.773438 0 l 4.613281 -3.078125 v 3.800781 c 0 0.550781 0.449219 1 1 1 s 1 -0.449219 1 -1 v -4 c 0 -1.644531 -1.355469 -3 -3 -3 z m 0.800781 2 h 8.398438 l -3.921875 2.613281 c -0.171875 0.113281 -0.382813 0.113281 -0.554688 0 z m 7.199219 5 v 3 h -3 v 2 h 3 v 3 h 2 v -3 h 3 v -2 h -3 v -3 z m 0 0" fill="#2e3436"/>
</svg>

<svg xmlns="http://www.w3.org/2000/svg" width="16" height="16" viewBox="0 0 16 16"><path fill="#2e3436" d="M3 1C1.355 1 0 2.355 0 4v6c0 1.645 1.355 3 3 3h2c.55 0 1-.45 1-1s-.45-1-1-1H3c-.57 0-1-.43-1-1V4.2l4.613 3.077a2.505 2.505 0 0 0 2.774 0L14 4.2V8c0 .55.45 1 1 1s1-.45 1-1V4c0-1.645-1.355-3-3-3zm.8 2h8.4L8.276 5.613a.495.495 0 0 1-.554 0zM11 8v3H8v2h3v3h2v-3h3v-2h-3V8zm0 0"/></svg>
